X: 2191
T: Mr. LUMSDEN
R: Strathspey
B: Kerr's v.2 p.22 #191
Z: 2016 John Chambers <jc:trillian.mit.edu>
M: C
L: 1/16
K: F
(AB) |\
cF3d3F cF3B3d | cF3 BAGF EG3 G2(AB) |\
cF3d3F cF3B3d | (EFG2) (GAB2) AF3F2 ::\
g2 |\
fgag fc3 df3f3g |
fgag fd3 eg3g3a |\
[1 fgag fc3 df3c3A | (Bcd2) (GAB2) AF3F2 :|\
[2 a3bg3a f3g(df3) | (Bcd2) (GAB2) AF3F2 |]
